!!!!SEGMENT: pl-kk--kk-i-8--027_anonim--sicut-cedrus-exaltata.krn
!!!cenid: 16xx:1168
!!!COM: Anonim
!!!COM-rismID: pe30004985
!!!CDT:
!!!CNT:
!!!OTL: Sicut cedrus exaltata
!!!PDT:
!!!AGN: Sacred
!!!YEC: Copyright 2022 Narodowy Instytut Fryderyka Chopina (https://polishscores.org)
!!!YEM: License CC-BY-4.0 (https://creativecommons.org/licenses/by/4.0)
!!!SMS-siglum: PL-Kk
!!!SMS-shelfmark: Kk.I.8
!!!SMS-shelfwork: 027 W
!!!SMS-variant:
!!!SMS-altvar:
!!!NIFC-rismSourceID: 1001148105
!!!NIFC-rismChildID: 1001149065
!!!NIFC-islandoraID: pl-kk:2296
!!!URL-pdf-islandora: https://repozytorium.nifc.pl/islandora/object/pl-kk%3A2296/datastream/PDF/view
!!!URL-scan: https://polish.musicsources.pl/pl/lokalizacje/galeria/rekopisy/6141 @EN{Scan on Polish Music Sources Website} @PL{Skany w portalu Dziedzictwo Muzyki Polskiej w otwartym dostępie}
!!!IIIF:
!!!ONB-nifc: UWAGA: A (skan 0017), T1 (0041), T2 (0064), B (0087). Następny utwór: Ibant apostoli gaudentes
!!!AIN: 1 alto 1 bass 2 tenor
!!!key:
**kern	**text	**kern	**text	**kern	**text	**kern	**text
*part4	*	*part3	*	*part2	*	*part1	*
*staff4	*	*staff3	*	*staff2	*	*staff1	*
*Ibass	*	*Itenor	*	*Itenor	*	*Ialto	*
*I"[BASSVS.]	*	*I"[TENOR 2dus.]	*	*I"[Tenore 1mo]	*	*I"[alto.]	*
*I'B	*	*I'T 2	*	*I'T 1	*	*I'A	*
*clefF4	*	*clefC4	*	*clefC4	*	*clefC3	*
*k[b-]	*	*k[b-]	*	*k[b-]	*	*k[b-]	*
*g:	*	*g:	*	*g:	*	*g:	*
*M2/1	*	*M2/1	*	*M2/1	*	*M2/1	*
*met(c)	*	*met(c)	*	*met(c)	*	*met(C|)	*
=1-	=1-	=1-	=1-	=1-	=1-	=1-	=1-
!LO:TX:a:i:t=de Aſſumphine B. V. Mariae.	!	!LO:TX:a:i:t=De Aſſumphine B. V. Mariae	!	!LO:TX:a:i:t=de Aſſumphine B. V. Mariae	!	!LO:TX:t=P:problem=przed kluczem inicjał S	!
00r	.	00r	.	1rA	.	2.d\	Si-
.	.	.	.	.	.	4d\	-cut
.	.	.	.	2.G/	ſi-	1e-X	ce-
.	.	.	.	4G/	-cut	.	.
=2-	=2-	=2-	=2-	=2-	=2-	=2-	=2-
.	.	.	.	1B-	Ce-	2d\	-dr(us)
.	.	.	.	.	.	2.g\	e-
*	*	*	*	*2\right	*	*	*
.	.	.	.	2A\	-drus	.	.
.	.	.	.	.	.	4f\	-xal-
.	.	.	.	2.d\	e-	4f\	-ta-
!	!	!	!	!	!	!LO:SIC:v:s=8e-	!
.	.	.	.	.	.	8eny\L	.
.	.	.	.	.	.	8d\J	.
=3-	=3-	=3-	=3-	=3-	=3-	=3-	=3-
!	!	!	!	!	!	!LO:SIC:v:s=2.e-	!
0r	.	0r	.	.	.	2.f\	.
!	!	!	!	!LO:TX:t=P:problem=all\right&colon; global	!	!	!
.	.	.	.	4c\	-xal-	.	.
.	.	.	.	4c\	-ta-	.	.
!	!	!	!	!	!	!LO:SIC:v:s=4e-	!
.	.	.	.	8B-\L	.	4f\	-ta
.	.	.	.	8A\J	.	.	.
!	!	!	!	!	!	!LO:SIC:v:s=2d	!
.	.	.	.	2.B-\	.	2e\	e-
.	.	.	.	.	.	2g\	-xal-
.	.	.	.	4B-\	-ta	.	.
=4-	=4-	=4-	=4-	=4-	=4-	=4-	=4-
*2\right	*	*	*	*	*	*	*
2.D\	ſi-	1r	.	2A/	ſu(m)	2g\	-ta-
!	!	!	!	!	!	!LO:TX:a:t=P:problem=# above	!
.	.	.	.	1d	e-	2f#X\	-ta
!LO:TX:t=P:problem=all\right&colon; global	!	!	!	!	!	!	!
4D\	-cut	.	.	.	.	.	.
1E-X	ce-	2.G/	ſi-	.	.	1g	Su(m)
.	.	.	.	2c\	-xal-	.	.
.	.	4G/	-cut	.	.	.	.
=5-	=5-	=5-	=5-	=5-	=5-	=5-	=5-
2D\	-drus	1B-	Ce-	2.d\	-ta-	0r	.
2.G\	e-	.	.	.	.	.	.
.	.	.	.	8c\L	.	.	.
.	.	.	.	8B-\J	.	.	.
*	*	*2\right	*	*	*	*	*
.	.	2A\	-drus	2c\	.	.	.
4F\	-xal-	.	.	.	.	.	.
4F\	-ta-	2.d\	e-	4A/	.	.	.
!LO:TX:a:t=P:problem=♭ above	!	!	!	!	!	!	!
8E-X\L	.	.	.	8G/L	.	.	.
8D\J	.	.	.	8F/J	.	.	.
=6-	=6-	=6-	=6-	=6-	=6-	=6-	=6-
2.E-X\	.	.	.	2.G/	.	2r	.
!	!	!LO:TX:t=P:problem=all\right&colon; global	!	!	!	!	!
.	.	4c\	-xal-	.	.	.	.
.	.	4c\	-ta-	.	.	2.g\	e-
4E-\	-ta	8B-\L	.	4G/	-ta	.	.
.	.	8A\J	.	.	.	.	.
*	*	*	*	*custos:d	*	*	*
2D\	ſum	2.B-\	.	2D/	ſum	.	.
.	.	.	.	.	.	4fny\	-xal-
!	!	!	!	!LO:LB:g=original	!	!	!
4G\	e-	.	.	2.d\	e-	4f\	-ta-
4G\	-xal-	4B-\	-ta	.	.	8e-X\L	.
.	.	.	.	.	.	8d\J	.
=7-	=7-	=7-	=7-	=7-	=7-	=7-	=7-
!	!	!	!	!	!	!LO:SIC:v:s=2.e-	!
4C/	-ta-	2A\	ſum	.	.	2.eny\	.
4D/	.	.	.	4c\	-xal-	.	.
!LO:TX:a:t=P:problem=♭ above	!	!	!	!	!	!	!
4E-X/	.	4G\	e-	4c\	-ta-	.	.
!	!	!	!	!	!	!LO:SIC:v:s=4e-	!
4F/	.	4A\	-xal-	8B-\L	.	4e\	-ta
.	.	.	.	8A\J	.	.	.
4G\	.	4B-\	-ta-	4B-\	.	4d\	e-
!	!	!	!	!	!	!LO:SIC:v:s=4e-	!
8F\L	.	8A\L	.	4c\	.	4e\	-xal-
8E-\J	.	8G\J	.	.	.	.	.
4D\	.	4F/	.	4d\	.	4f\	-ta-
!	!	!	!	!	!	!LO:N:vis=16	!
!	!	!	!	!	!	!LO:SIC:v:s=8e-	!
4E-\	.	4G/	.	8c\L	.	8e\L	.
!	!	!	!	!	!	!LO:N:vis=16	!
.	.	.	.	8B-\J	.	8d\J	.
=8-	=8-	=8-	=8-	=8-	=8-	=8-	=8-
!	!	!	!	!	!	!LO:LB:g=original	!
4F\	.	(2.A/	.	4A\	.	4c\	.
4C/	.	.	.	4B-\	.	8d\L	.
!	!	!	!	!	!	!LO:SIC:v:s=8e-	!
.	.	.	.	.	.	8e\J	.
2.F\	.	.	.	4c\	.	4.f\	.
.	.	8G/)	.	8B-\L	.	.	.
!	!	!LO:TX:t=P:problem=kreska pseudotaktowa	!	!	!	!	!
.	.	8F/	-ta	8A\J	.	8f\	-ta
.	.	2G/	ſum	2B-\	.	2d\	Sum
!LO:SIC:v:s=4e-	!	!	!	!	!	!	!
4Eny\	.	.	.	.	.	.	.
!LO:SIC:v:s=4e-	!	!	!	!	!	!LO:SIC:v:s=2e-	!
4Eny\	.	2rF	.	4G/	.	2e\	in
8D\L	.	.	.	4A/	.	.	.
8C\J	.	.	.	.	.	.	.
=9-	=9-	=9-	=9-	=9-	=9-	=9-	=9-
2.D/	.	1r	.	4B-/	.	1.f	.
.	.	.	.	8A/L	.	.	.
.	.	.	.	8G/J	.	.	.
.	.	.	.	4.A/	.	.	.
*custos:BB	*	*	*	*	*	*	*
4C/	.	.	.	.	.	.	.
.	.	.	.	8A/	-ta	.	.
!LO:N:acc=#	!	!	!	!	!	!	!
!LO:LB:g=original	!	!LO:LB:g=original	!	!	!	!	!
2BBn/	.	2.G/	ſi-	1G	ſum	.	.
!	!	!	!	!	!	!LO:SIC:v:s=4e-	!
2C/	-ta-	.	.	.	.	4e\	Li-
!	!	!	!	!	!	!LO:SIC:v:s=4e-	!
.	.	4G/	-cut	.	.	4e\	-ba-
=10-	=10-	=10-	=10-	=10-	=10-	=10-	=10-
1GG	ſum	1B-	Ce-	1r	.	1d	-no
1rD	.	2A\	-drus	2.d\	ſi-	0r	.
.	.	2.d\	e-	.	.	.	.
.	.	.	.	4d\	-cut	.	.
=11-	=11-	=11-	=11-	=11-	=11-	=11-	=11-
2.GG/	si-	.	.	1e-X	Ce-	.	.
.	.	4c\	-xal-	.	.	.	.
.	.	4B-\	-ta-	.	.	.	.
4GG/	-cut	8A\L	.	.	.	.	.
!	!	!LO:TX:t=P:problem=kreska pseudotaktowa	!	!	!	!	!
.	.	8G\J	.	.	.	.	.
1BB-y	ce-	4.F/	.	2d\	-dr(us)	2d\	Si-
.	.	8F/	-ta	.	.	.	.
.	.	2B-\	ſum	2g\	e-	2d\	-cut
=12-	=12-	=12-	=12-	=12-	=12-	=12-	=12-
*	*	*	*	*custos:d	*	*	*
2AA/	-dr(us)	4F/	e-	2c\	-xal-	1f	ce-
.	.	4G/	-xal-	.	.	.	.
!	!	!	!	!LO:LB:g=original	!	!	!
2.D/	e-	4A/	-ta-	4.d\	-ta-	.	.
.	.	8G/L	.	.	.	.	.
.	.	8F/J	.	8d\	-ta	.	.
!	!	!	!	!	!	!LO:SIC:v:s=2e-	!
.	.	2G/	.	2G/	ſum	2e\	-dr(us)
4C/	-xal-	.	.	.	.	.	.
4C/	-ta-	4.A/	.	4c\	e-	2g.\	e-
8BB-/L	.	.	.	4c\	-xal-	.	.
8AA/J	.	8A/	-ta	.	.	.	.
=13-	=13-	=13-	=13-	=13-	=13-	=13-	=13-
1BB-	.	2D/	ſum	4d\	-ta-	.	.
.	.	.	.	4d\	-ta	4g\	-xal-
.	.	4G/	e-	2.d\	e-	4g\	-ta-
.	.	4G/	-xal-	.	.	8f\L	.
.	.	.	.	.	.	8e\J	.
2.AA/	.	2.A/	-ta-	.	.	2.f\	.
.	.	.	.	4c\	-xal-	.	.
.	.	.	.	2.c\	-ta-	.	.
4GG/	.	4B-\	.	.	.	4g\	.
=14-	=14-	=14-	=14-	=14-	=14-	=14-	=14-
2FF#X/	.	2c\	.	.	.	2a\	.
.	.	.	.	8B-\L	.	.	.
.	.	.	.	8A\J	.	.	.
2GG/	-ta	2G/	-ta	4.B-\	.	2g\	-ta
.	.	.	.	8B-\	-ta	.	.
!	!	!LO:LB:g=original	!	!	!	!LO:TX:a:t=P:problem=# above	!
2.D/	ſum	2A\	ſum	2A/	ſum	2f#X\	Su(m)
.	.	2B-\	in	2G/	in	2g\	in
4D/	in	.	.	.	.	.	.
=15-	=15-	=15-	=15-	=15-	=15-	=15-	=15-
1.D	Li-	2A\	Li-	2F#X/	Li-	4a\	li-
.	.	.	.	.	.	4g\	.
.	.	2G/	.	4B-/	.	2.g\	.
.	.	.	.	8c/L	.	.	.
.	.	.	.	8B-/J	.	.	.
.	.	2.A\	.	2.A\	.	.	.
!	!	!	!	!	!	!LO:TX:t=P:problem=# above	!
.	.	.	.	.	.	8f#X\L	.
.	.	.	.	.	.	8e\J	.
!	!	!	!	!	!	!LO:TX:t=P:problem=# above	!
!	!	!	!	!	!	!LO:LB:g=original	!
2D\	-ba-	.	.	.	.	2f#X\	-ba-
.	.	4A\	-ba-	4d\	-ba-	.	.
=16-	=16-	=16-	=16-	=16-	=16-	=16-	=16-
!	!	!LO:N:acc=#	!	!	!	!	!
2GG/	-no	2Bn\	-no	1d	-no	2g\	-no
!	!	!	!	!	!	!LO:TX:t=P:problem=kreska pseudotaktowa (inną ręką?)	!
2G\	et	2B-X\	et	.	.	2re	.
2D\	qua-	2F/	qua-	2rc	.	2r	.
4D\	-ſi	4F/	-ſi	2d\	et	2fny\	et
4E\	Cẏ-	4G/	Cẏ-	.	.	.	.
=17-	=17-	=17-	=17-	=17-	=17-	=17-	=17-
1F	-preſ-	1A	-preſ-	2A\	qua-	2c\	qua-
.	.	.	.	4A\	-ſi	4c\	-ſi
.	.	.	.	4B-\	Cẏ-	4d\	Cy-
!	!	!	!	!LO:LB:g=original	!	!	!
1C	-s(us)	2G/	-sus	2c\	-preſ-	1e	-preſ-
*	*	*	*ij	*	*	*	*
.	.	2c\	et	4c\	-sus	.	.
*	*	*	*	*	*ij	*	*
.	.	.	.	4c\	et	.	.
=18-	=18-	=18-	=18-	=18-	=18-	=18-	=18-
!LO:LB:g=original	!	!	!	!	!	!	!
0r	.	2G/	qua-	2B-\	qua-	2d\	-s(us)
*	*	*	*	*	*	*	*ij
.	.	4G/	-ſi	4B-\	-ſi	2g\	et
.	.	4A/	Cẏ-	4c\	Cẏ-	.	.
.	.	1B-	-preſ-	2d\	-preſ-	2d\	qua-
.	.	.	.	2d\	-sus	4d\	-ſi
*	*	*	*	*	*Xij	*	*
.	.	.	.	.	.	4e\	Cy-
=19-	=19-	=19-	=19-	=19-	=19-	=19-	=19-
2r	.	2F/	-sus	4r	.	1f	-preſ-
.	.	.	.	4A\	qua-	.	.
2F\	et	2A/	et	4A\	-ſi	.	.
.	.	.	.	4B-\	.	.	.
2C/	qua-	2E/	qua-	2c\	Cẏ-	2e\	-s(us)
4C/	-ſi	4E/	-ſi	4c\	-preſ-	2r	.
4D/	cẏ-	4F/	Cẏ-	4c\	-sus	.	.
=20-	=20-	=20-	=20-	=20-	=20-	=20-	=20-
*	*	*custos:G	*	*	*	*	*
2E\	-preſ-	1G	-preſ-	2G/	et	2re	.
4E\	-sus	.	.	4G/	qua-	2g\	et
4F\	in	.	.	4A/	-ſi	.	.
!	!	!LO:LB:g=original	!	!	!	!	!
2.G\	mon-	2G/	-sus	2B-\	Cẏ-	2d\	qua-
.	.	2r	.	4B-\	-preſ-	4d\	-ſi
8F\L	.	.	.	4c\	-s(us)	4e\	Cy-
8E\J	.	.	.	.	.	.	.
=21-	=21-	=21-	=21-	=21-	=21-	=21-	=21-
2D\	-te	2d\	et	2.d\	in	2f\	-preſ-
4D\	.	2A\	qua-	.	.	4f\	-s(us)
*	*	*	*	*	*	*	*Xij
!	!	!	!	!	!	!LO:TX:t=P:problem=4f poprawione na 4g	!
4E\	in	.	.	8c\L	mon-	4g\	in
.	.	.	.	8B-\J	.	.	.
2.F\	mon-	4A\	-ſi	2.A\	.	2.a\	Mon-
.	.	4B-\	Cẏ-	.	.	.	.
.	.	2c\	-preſ-	.	.	.	.
4G\	.	.	.	4B-\	.	8g\L	.
.	.	.	.	.	.	8f\J	.
=22-	=22-	=22-	=22-	=22-	=22-	=22-	=22-
!	!	!	!	!LO:LB:g=original	!	!	!
2A\	.	2c\	-sus	4c\	.	4e\	.
*	*	*	*Xij	*	*	*	*
.	.	.	.	4d\	.	4f\	.
!	!	!LO:N:acc=#	!	!LO:N:acc=#	!	!	!
4E\	-te	2BnX\	in	2.enX\	.	2g\	.
4E\	in	.	.	.	.	.	.
2.F\	mon-	2.A\	mon-	.	.	[2f\	.
.	.	.	.	8d\L	.	.	.
.	.	.	.	8c\J	.	.	.
!	!	!	!	!	!	!LO:LB:g=original	!
.	.	.	.	2.d\	.	4f\]	.
4G\	-te	4B-X\	-te	.	.	4e\	-te
=23-	=23-	=23-	=23-	=23-	=23-	=23-	=23-
1A	ſẏ-	1A	ſẏ-	.	.	1e	Sy-
.	.	.	.	4e\	-te	.	.
.	.	.	.	2c#X\	ſẏ-	.	.
2D/	-on	1A	-on	4d\	-on	2f\	-on
.	.	.	.	4d\	et	.	.
2D/	et	.	.	4A\	qua-	2f\	et
.	.	.	.	8A\	-ſi	.	.
.	.	.	.	8B-\	Cẏ-	.	.
=24-	=24-	=24-	=24-	=24-	=24-	=24-	=24-
2AA/	qua-	2r	.	1cny	-preſ-	2c/	qua-
4AA/	-ſi	2c\	et	.	.	4c/	-ſi
4BB-/	Cẏ-	.	.	.	.	4d\	.
1C	-preſ-	2G/	qua-	1c	-s(us)	2e\	Cy-
.	.	4G/	-ſi	.	.	4e\	-preſ-
.	.	4A/	Cẏ-	.	.	4e\	-s(us)
=25-	=25-	=25-	=25-	=25-	=25-	=25-	=25-
2GG/	-s(us)	1B-	-preſ-	0r	.	2d\	Et
2G\	et	.	.	.	.	4d\	qua-
.	.	.	.	.	.	4e\	-ſi
!LO:LB:g=original	!	!	!	!	!	!	!
2D\	qua-	2A\	-sus	.	.	2f\	Cy-
*	*	*	*ij	*	*	*	*
4D\	-ſi	2f\	et	.	.	2.a\	-preſ-
4E\	cẏ-	.	.	.	.	.	.
=26-	=26-	=26-	=26-	=26-	=26-	=26-	=26-
2F\	-preſ-	2c\	qua-	1r	.	.	.
.	.	.	.	.	.	4g\	.
!	!	!	!	!	!	!LO:N:vis=1	!
4F\	-s(us)	4c\	-ſi	.	.	2f\	-ſ(us)
4F\	.	4d\	Cẏ-	.	.	.	.
2C/	et	1e-X	-preſ-	2rc	.	1r	.
4C/	qua-	.	.	2c\	et	.	.
4D/	-ſi	.	.	.	.	.	.
=27-	=27-	=27-	=27-	=27-	=27-	=27-	=27-
*	*	*custos:e-	*	*	*	*	*
2E-X\	Cẏ-	2B-\	-sus	2G/	qua-	2r	.
*	*	*	*Xij	*	*	*	*
!	!	!LO:TX:a:t=P:problem=♭ above	!	!	!	!	!
!LO:SIC:v:s=4E-	!	!LO:LB:g=original	!	!	!	!	!
4Eny\	-preſ-	2e-X\	in	4G/	-ſi	2g\	Et
4F\	-s(us)	.	.	4A/	.	.	.
2.G\	in	4B-\	mon-	2B-\	Cy-	2d\	qua-
.	.	4c\	.	.	.	.	.
.	.	2.d\	.	4B-\	-preſ-	4d\	-ſi
!	!	!	!	!	!	!LO:SIC:v:s=4e-	!
8F\L	mon-	.	.	4c\	-s(us)	4e\	Cy-
!LO:SIC:v:s=8E-	!	!	!	!	!	!	!
8E\J	.	.	.	.	.	.	.
=28-	=28-	=28-	=28-	=28-	=28-	=28-	=28-
2D\	.	.	.	2.d\	in	2f\	-preſ-
.	.	8c\L	.	.	.	.	.
.	.	8B-\J	.	.	.	.	.
4D\	-te	2A\	.	.	.	4f\	-ſ(us)
!LO:SIC:v:s=4E-	!	!	!	!	!	!	!
4Eny\	in	.	.	8c\L	mon-	4g\	.
*	*	*	*	*custos:A	*	*	*
.	.	.	.	8B-\J	.	.	.
!	!	!	!	!LO:LB:g=original	!	!	!
2.F\	mon-	4A\	-te	2A\	.	2.a\	in
.	.	4B-\	in	.	.	.	.
.	.	1c	mon-	4A\	-te	.	.
8E\L	.	.	.	4B-\	in	8g\L	.
8D\J	.	.	.	.	.	8f\J	.
=29-	=29-	=29-	=29-	=29-	=29-	=29-	=29-
2C/	-te	.	.	2.c\	mon-	2e\	Mon-
2F\	.	2.A\	.	.	.	2f\	-te
.	.	.	.	8B-\L	.	.	.
.	.	.	.	8A\J	.	.	.
2.BB-/	ſẏ-	.	.	2.B-X\	.	4d\	Sy-
.	.	4G/	-te	.	.	8e\L	.
.	.	.	.	.	.	8f\J	.
.	.	(<2G/	ſẏ-	.	.	1g	.
4C/	.	.	.	4A\	-te	.	.
=30-	=30-	=30-	=30-	=30-	=30-	=30-	=30-
1D	.	1d)	.	1A	Sẏ-	.	.
!	!	!	!	!	!	!LO:TX:a:t=P:problem=# above	!
.	.	.	.	.	.	2f#X\	.
2GG/	on	2d\	-on	1B-	-on	1g	-on
4G\	qua-	4B-\	qua-	.	.	.	.
4G\	-ſi	4B-\	-ſi	.	.	.	.
=31-	=31-	=31-	=31-	=31-	=31-	=31-	=31-
2A\	mẏr-	2c\	mir-	00r	.	1r	.
4A\	-[r]ha	4c\	-rha	.	.	.	.
4A\	e-	4c\	e-	.	.	.	.
2.B-\	-le-	(1.d	-le-	.	.	2r	.
!	!	!	!	!	!	!	!LO:MO:mod=qua-
.	.	.	.	.	.	4d\	qva-
4A\	.	.	.	.	.	4d\	-ſi
=32-	=32-	=32-	=32-	=32-	=32-	=32-	=32-
!LO:LB:g=original	!	!	!	!	!	!	!
(<2G\	.	.	.	.	.	2e\	Myr-
4A\)	-cta	2c#X\	.	.	.	4e\	-rha
4A\	e-	.	.	.	.	4e\	e-
2.D\	-le-	1d)	.	.	.	2.fny\	-le-
4E\	.	.	.	.	.	4e\	.
=33-	=33-	=33-	=33-	=33-	=33-	=33-	=33-
4F\	.	1A	-cta	1rA	.	2d\	.
4G\	.	.	.	.	.	.	.
!	!	!	!	!	!	!LO:TX:a:t=P:problem=# above	!
4A\	.	.	.	.	.	2c#X/	-cta
4G\	.	.	.	.	.	.	.
4F#X\	.	2r	.	2r	.	4.d\	e-
4D\	.	.	.	.	.	.	.
.	.	.	.	.	.	8cny/	.
1G	.	4B-\	qua-	4G/	Qua-	2B-/	-le-
*	*	*custos:c	*	*	*	*	*
.	.	4B-\	-ſi	4G/	-ſi	.	.
=34-	=34-	=34-	=34-	=34-	=34-	=34-	=34-
!	!	!LO:LB:g=original	!	!	!	!	!
.	.	2cny\	mir-	2A/	mẏr-	1A	.
2F#X\	.	4c\	-rha	4A/	-rha	.	.
.	.	4c\	e-	4A/	e-	.	.
2.G\	.	4B-\	-le-	2.B-/	-le-	1G	-cta
.	.	4c\	.	.	.	.	.
.	.	(<1d	.	.	.	.	.
4Fny\	.	.	.	4A/	.	.	.
=35-	=35-	=35-	=35-	=35-	=35-	=35-	=35-
1E-X	.	.	.	1G	.	0r	.
!	!	!LO:N:acc=-	!	!	!	!	!
.	.	2cn\)	.	.	.	.	.
2D\	-cta	2.d\	-cta	1A	-cta	.	.
4D\	qua-	.	.	.	.	.	.
4D\	-ſi	4d\	e-	.	.	.	.
=36-	=36-	=36-	=36-	=36-	=36-	=36-	=36-
!LO:N:acc=#	!	!	!	!	!	!	!
2En\	mẏr-	2.c\	-le-	1r	.	1r	.
4E\	-[r]ha	.	.	.	.	.	.
4E\	e-	4B-\	.	.	.	.	.
2.F\	-le-	1A	.	2r	.	2r	.
*	*	*	*	*	*ij	*	*
.	.	.	.	4A\	Qua-	4c\	qua-
4E\	.	.	.	4A\	-ſi	4c\	-ſi
=37-	=37-	=37-	=37-	=37-	=37-	=37-	=37-
!	!	!	!	!LO:N:acc=#	!	!	!
2D\	.	2D/	-cta	2Bn\	mẏr-	2d\	Mir-
2G\	.	2rF	.	4B\	-rha	4d\	-rha
*	*	*	*	*custos:c	*	*	*
.	.	.	.	4B\	e-	4d\	.
!	!	!	!	!	!	!LO:SIC:v:s=2e-	!
!	!	!	!	!LO:LB:g=original	!	!	!
1.C	.	1rA	.	4c\	-le-	2e\	.
.	.	.	.	4d\	.	.	.
.	.	.	.	4e-X\	.	4c\	e-
*	*	*	*	*	*	*custos:e	*
.	.	.	.	4d\	.	4d\	-le-
=38-	=38-	=38-	=38-	=38-	=38-	=38-	=38-
!	!	!	!	!	!	!LO:SIC:v:s=4e-	!
!	!	!	!	!	!	!LO:LB:g=original	!
.	.	2rF	.	2c\	.	4e\	.
.	.	.	.	.	.	4f\	.
2BB-/	.	4G/	qua-	4d\	-cta	1g	.
*	*	*	*	*	*Xij	*	*
.	.	4G/	-ſi	4d\	e-	.	.
1AA	.	2G/	mir-	1c	-le-	.	.
.	.	4A/	-rha	.	.	2f\	.
.	.	4A/	e-	.	.	.	.
=39-	=39-	=39-	=39-	=39-	=39-	=39-	=39-
2GG/	-cta	2.B-/	-le-	2B-y\	-cta	1g	-cta
2GG/	e-	.	.	2d\	Mẏr-	.	.
.	.	4A/	.	.	.	.	.
!LO:LB:g=original	!	!	!	!	!	!	!
2C/	-le-	2G/	.	4c\	-rha	1rg	.
.	.	.	.	4c\	e-	.	.
4BB-/	-cta	1d	.	4G/	-le-	.	.
4BB-/	e-	.	.	4A/	.	.	.
=40-	=40-	=40-	=40-	=40-	=40-	=40-	=40-
1E-X	-le-	.	.	2B-/	.	2re	.
.	.	1c	.	4G/	-cta	2g\	Myr-
.	.	.	.	4G/	e-	.	.
0D	.	.	.	4A/	-le-	2f#X\	-rha
.	.	.	.	4G/	.	.	.
.	.	4d\	-cta	1G	.	2b-\	e-
.	.	4d\	e-	.	.	.	.
=41-	=41-	=41-	=41-	=41-	=41-	=41-	=41-
.	.	1d	-le-	.	.	1a	-le-
.	.	.	.	2F#X/	.	.	.
!	!	!LO:LB:g=original	!	!	!	!	!
1GG	-cta	1d	-cta	2G/	-cta	1g	-cta
.	.	.	.	2G/	de-	.	.
=42-	=42-	=42-	=42-	=42-	=42-	=42-	=42-
2r	.	00r	.	4A/	-di	0r	.
!	!	!	!	!LO:SIC:v:s=4F#	!	!	!
.	.	.	.	4Fny/	ſu-	.	.
2D\	de-	.	.	4A/	-a-	.	.
!	!	!	!	!	!LO:MO:mod=-vi-	!	!
.	.	.	.	4B-/	-ui-	.	.
4Eny\	-di	.	.	4c\	-ta-	.	.
4C\	ſu-	.	.	8B-\L	.	.	.
.	.	.	.	8A\J	.	.	.
4E\	-a-	.	.	4G\	.	.	.
!LO:TX:a:t=P:problem=# above	!	!	!	!	!	!	!
!	!LO:MO:mod=-vi-	!	!	!	!	!	!
4F#X\	-ui-	.	.	4A\	.	.	.
=43-	=43-	=43-	=43-	=43-	=43-	=43-	=43-
!	!	!	!	!LO:LB:g=original	!	!	!
4G\	-ta-	.	.	4B-\	.	2re	.
!LO:SIC:v:s=4F#	!	!	!	!	!	!	!
8Fny\L	.	.	.	4c\	.	.	.
8E\J	.	.	.	.	.	.	.
2D/	.	.	.	2d\	.	2d\	de-
2C/	tem	.	.	2G/	-tem	4e\	-di
.	.	.	.	.	.	4c\	ſu-
2AA/	o-	.	.	2A/	de-	4e\	-a-
.	.	.	.	.	.	4fny\	-vi-
=44-	=44-	=44-	=44-	=44-	=44-	=44-	=44-
1GG	-do-	2r	.	4B-/	-di	4g\	-ta-
.	.	.	.	4G/	ſu-	8f\L	.
.	.	.	.	.	.	8e\J	.
.	.	2G/	de-	4B-/	-a-	4d\	.
!	!	!	!	!	!LO:MO:mod=-vi-	!	!
.	.	.	.	4c/	-ui-	4e\	.
4D/	-ris	4A/	-di	1d	-ta-	2.f\	.
4D/	ſu-	4F/	ſu-	.	.	.	.
4C/	-a-	4A/	-a-	.	.	.	.
!	!LO:MO:mod=-vi-	!	!LO:MO:mod=-vi-	!	!	!	!
4BB-/	-ui-	4B-/	-ui-	.	.	4g\	.
=45-	=45-	=45-	=45-	=45-	=45-	=45-	=45-
4AA/	-ta-	4c\	-ta-	1c	-tem	4a\	.
4BB-/	.	8B-\L	.	.	.	8g\L	.
.	.	8A\J	.	.	.	8f\J	.
2C/	.	4G/	.	.	.	4e\	.
.	.	4A/	.	.	.	4f\	.
*	*	*lig	*	*	*	*	*
2GG/	tem	1B-	.	2r	.	2.g\	-te(m)
2GG/	de-	.	.	2B-\	de-	.	.
.	.	.	.	.	.	4f\	o-
=46-	=46-	=46-	=46-	=46-	=46-	=46-	=46-
4AA/	-di	1A	.	4c\	-di	2.f\	-do-
4FFny/	ſu-	.	.	4c\	ſu-	.	.
4AA/	-a-	.	.	4A/	-a-	.	.
!	!	!	!	!	!	!LO:N:vis=16	!
!	!LO:MO:mod=-vi-	!	!	!	!LO:MO:mod=-vi-	!	!
4BB-/	-ui-	.	.	8G/L	-ui-	8e\L	.
!	!	!	!	!	!	!LO:N:vis=16	!
.	.	.	.	8F/J	.	8d\J	.
*	*	*Xlig	*	*	*	*	*
!	!	!	!	!	!	!LO:LB:g=original	!
4C/	-[ta]-	1G	-tem	4E/	-ta-	2e\	-ris
8BB-/L	.	.	.	4F/	.	.	.
8AA/J	.	.	.	.	.	.	.
4GG/	.	.	.	2G/	.	4e\	o-
*custos:BB	*	*	*	*	*	*	*
4AA/	.	.	.	.	.	4e\	-do-
=47-	=47-	=47-	=47-	=47-	=47-	=47-	=47-
!LO:LB:g=original	!	!LO:TX:a:t=3	!	!	!	!	!
1BB-	.	0r	.	2F/	-tem	1d	.
.	.	.	.	2F/	de-	.	.
2FF/	tem	.	.	4A/	-di	1c	-ris
.	.	.	.	4F/	ſu-	.	.
2F\	de-	.	.	4A/	-a-	.	.
!	!	!	!	!	!LO:MO:mod=-vi-	!	!
.	.	.	.	4B-/	-ui-	.	.
=48-	=48-	=48-	=48-	=48-	=48-	=48-	=48-
4A\	-di	1r	.	2.c\	-ta-	2re	.
4F\	ſu-	.	.	.	.	.	.
4A\	-a-	.	.	.	.	2c/	de-
!	!LO:MO:mod=-vi-	!	!	!	!	!	!
4B-\	-ui-	.	.	8B-\L	.	.	.
.	.	.	.	8A\J	.	.	.
1c	-ta-	2r	.	2.G/	.	4e\	-di
.	.	.	.	.	.	4c\	ſu-
*	*	*	*ij	*	*	*	*
.	.	2G/	ſu-	.	.	4e\	-a-
.	.	.	.	4A/	.	4f\	-vi-
=49-	=49-	=49-	=49-	=49-	=49-	=49-	=49-
*	*	*	*	*lig	*	*	*
!	!	!	!	!LO:PB:g=original	!	!	!
1G	te(m)	4B-\	-a-	1B-	.	2.g\	-ta-
!	!	!	!LO:MO:mod=-vi-	!	!	!	!
.	.	4B-\	-ui-	.	.	.	.
.	.	4B-\	-ta-	.	.	.	.
.	.	8A\L	.	.	.	8f\L	.
!	!	!	!	!	!	!LO:TX:a:t=P:problem=♭ above	!
.	.	8G\J	.	.	.	8e-X\J	.
2r	.	2F/	.	1A	.	1f	.
!	!	!LO:TX:t=P:problem=kreska pseudotaktowa	!	!	!	!	!
2D\	de-	2F/	-tem	.	.	.	.
*	*	*	*Xij	*Xlig	*	*	*
=50-	=50-	=50-	=50-	=50-	=50-	=50-	=50-
4E-X\	-di	1r	.	2G/	-tem	1e-X	-te(m)
4C\	ſu-	.	.	.	.	.	.
4E-\	-a-	.	.	2G/	de-	.	.
!	!LO:MO:mod=-vi-	!	!	!	!	!	!
4F\	-ui-	.	.	.	.	.	.
2.G\	-ta-	4r	.	4B-\	-di	2r	.
.	.	4B-\	ſu-	4G\	ſu-	.	.
*	*	*	*	*	*	*	*ij
.	.	4d\	-a-	4B-\	-a-	2d\	de-
!	!	!LO:TX:t=P:problem=kreska pseudotaktowa	!	!	!	!	!
!	!	!	!LO:MO:mod=-vi-	!	!LO:MO:mod=-vi-	!	!
8F\L	.	4G/	-ui-	4c\	-ui-	.	.
8Eny\J	.	.	.	.	.	.	.
=51-	=51-	=51-	=51-	=51-	=51-	=51-	=51-
!	!	!LO:LB:g=original	!	!	!	!	!
2.D\	.	1A	-ta-	2.d\	-ta-	4f\	-di
.	.	.	.	.	.	4d\	ſu-
.	.	.	.	.	.	4f\	-a-
4E\	.	.	.	8c\L	.	4g\	-vi-
.	.	.	.	8B-\J	.	.	.
2F\	.	4A/	-tem	4A\	.	4a\	-ta-
.	.	4A/	o-	4A\	-tem	8g\L	.
.	.	.	.	.	.	8f\J	.
4C/	tem	1c	-do-	2rc	.	4eny\	.
4C/	O-	.	.	.	.	4f\	.
=52-	=52-	=52-	=52-	=52-	=52-	=52-	=52-
1G	-do-	.	.	2rc	.	1g	.
!	!	!LO:N:acc=#	!	!	!	!	!
.	.	2BnX\	.	2d\	de-	.	.
1C	-ris	2c\	-ris	4e-X\	-di	1g	-te(m)
*	*	*	*	*	*	*	*Xij
.	.	.	.	4c\	ſu-	.	.
.	.	2G/	ſu-	4e-\	-a-	.	.
!	!	!	!	!	!LO:MO:mod=-vi-	!	!
.	.	.	.	4f\	-ui-	.	.
=53-	=53-	=53-	=53-	=53-	=53-	=53-	=53-
2r	.	4B-y/	-a-	4g\	-ta-	2re	.
!	!	!	!LO:MO:mod=-vi-	!	!	!	!
.	.	4G/	-ui-	8f\L	.	.	.
!	!	!	!	!LO:SIC:v:s=8e-	!	!	!
.	.	.	.	8eny\J	.	.	.
2G\	ſu-	2.B-/	-ta-	4d\	-tem	2.g\	Su-
.	.	.	.	4B-\	o-	.	.
!LO:TX:a:t=P:problem=♭ above	!	!	!	!	!	!	!
4E-X\	-a-	.	.	2.e-X\	-do-	.	.
!	!LO:MO:mod=-vi-	!	!	!	!	!	!
4C/	-ui-	8A/L	.	.	.	8f\L	-a-
*	*	*	*	*	*	*custos:f	*
!	!	!	!	!	!	!LO:TX:a:t=P:problem=♭ above	!
.	.	8G/J	.	.	.	8e-X\J	.
!	!	!	!	!	!	!LO:LB:g=original	!
2F\	-ta-	2.A/	.	.	.	2.f\	.
.	.	.	.	8d\L	.	.	.
.	.	.	.	8c\J	.	.	.
=54-	=54-	=54-	=54-	=54-	=54-	=54-	=54-
2BB-/	tem	.	.	2.d\	.	.	.
!	!	!	!	!	!	!LO:TX:a:t=P:problem=♭ above	!
.	.	8G/L	.	.	.	8e-X\L	-vi-
.	.	8F/J	.	.	.	8d\J	.
*custos:C	*	*	*	*	*	*	*
2E-X\	ſu-	2.G/	.	.	.	1e-	-ta-
.	.	.	.	8c\L	.	.	.
.	.	.	.	8B-\J	.	.	.
!LO:LB:g=original	!	!	!	!LO:LB:g=original	!	!	!
4C/	-a-	.	.	4c\	.	.	.
!	!LO:MO:mod=-vi-	!	!	!	!	!	!
4C/	-ui-	8F/L	.	4B-\	.	.	.
.	.	8E/J	.	.	.	.	.
(4D/	-ta-	4F/	-tem	2A/	.	4f\	-te(m)
!	!	!LO:TX:t=P:problem=kreska pseudotaktowa	!	!	!	!	!
4C/)	.	4c\	ſu-	.	.	4f\	o-
=55-	=55-	=55-	=55-	=55-	=55-	=55-	=55-
!LO:N:acc=#	!	!	!	!	!	!	!
4BBnX/	tem	4d\	-a-	1G	-ris	1g	-do-
!	!	!	!LO:MO:mod=-vi-	!	!	!	!
4GG/	o-	4d\	-ui-	.	.	.	.
1C	-do-	2eny\	-ta-	.	.	.	.
.	.	4d\	-tem	0r	.	1f	-riſ
.	.	4d\	o-	.	.	.	.
!LO:N:acc=#	!	!LO:TX:t=P:problem=kreska pseudotaktowa	!	!	!	!	!
2BBnX/	.	2d\	-do-	.	.	.	.
=56-	=56-	=56-	=56-	=56-	=56-	=56-	=56-
1C	.	1c	-ris	.	.	1eny	.
!	!	!LO:PB:g=original	!	!	!	!	!
2GG/	-ris	4r	.	2r	.	4d\	.
.	.	4B-/	ſu-	.	.	4g\	ſu-
4r	.	4G/	-a-	4r	.	4e\	-a-
!	!	!	!LO:MO:mod=-vi-	!	!	!	!
4c\	ſu-	4E/	-ui-	4eny\	ſu-	4c\	-vi-
=57-	=57-	=57-	=57-	=57-	=57-	=57-	=57-
4A\	-a-	2A/	-ta-	4c\	-a-	2f\	-ta-
!	!LO:MO:mod=-vi-	!	!	!	!LO:MO:mod=-vi-	!	!
4F\	-ui-	.	.	4A\	-ui-	.	.
2B-\	-ta-	4F/	-tem	2d\	-ta-	4d\	-te(m)
.	.	4D/	o-	.	.	4B-/	o-
2G\	tem	2G/	-do-	4B-\	-tem	4e\	-do-
.	.	.	.	4G/	o-	8e\	-ris
.	.	.	.	.	.	8e\	.
4r	.	2E/	-ris	2c\	-do-	4c/	Su-
*	*ij	*	*	*	*	*	*
4A\	ſu-	.	.	.	.	4A/	-a-
=58-	=58-	=58-	=58-	=58-	=58-	=58-	=58-
!	!	!	!	!	!	!LO:TX:t=P:problem=4d poprawione na 2d	!
4F\	-a-	4r	.	2A/	-ris	2d\	-vi-
*	*	*	*ij	*	*	*	*
!	!LO:MO:mod=-vi-	!	!	!	!	!	!
4D\	-ui-	4f\	ſu-	.	.	.	.
2G\	-ta-	4d\	-a-	4r	.	4d\	-ta-
!	!	!	!LO:MO:mod=-vi-	!	!	!	!
.	.	4B-\	-ui-	4B-\	ſu-	2g\	-te(m)
!	!	!LO:N:acc=#	!	!	!	!	!
4Eny\	tem	2enX\	-ta-	4G/	-a-	.	.
*	*Xij	*	*	*	*	*	*
!	!	!	!	!	!LO:MO:mod=-vi-	!	!
4C/	o-	.	.	4E/	-ui-	4e\	ſua-
4F\	-do-	4c\	-tem	4A/	-ta-	4c\	-vi-
8F\	-ris	4A\	o-	8A/	-te(m)	2f\	-ta-
8F\	ſu-	.	.	8A/	ſu-	.	.
=59-	=59-	=59-	=59-	=59-	=59-	=59-	=59-
4D/	-a-	2d\	-do-	4F/	-a-	.	.
*custos:E-	*	*	*	*	*	*	*
!	!	!	!	!	!LO:MO:mod=-vi-	!	!
4BB-y/	-ui-	.	.	4D/	-ui-	4d\	-te(m)
!LO:PB:g=original	!	!	!	!	!	!	!
2E-X\	-ta-	2B-\	-ris	4G/	-ta-	4r	.
!	!	!	!	!	!	!LO:SIC:v:s=4g	!
.	.	.	.	4G/	-tem	4a\	Su-
!	!	!	!	!	!	!LO:SIC:v:s=4e-	!
4C/	tem	4r	.	4e-X\	ſu-	4f\	-a-
!	!	!	!	!	!	!LO:SIC:v:s=4c	!
4AA/	o-	4c\	ſu-	4c\	-a-	4d\	-vi-
!	!	!	!	!	!	!LO:TX:t=P:problem=kreska pseudotaktowa	!
!	!	!	!	!	!	!LO:SIC:v:s=2f	!
!	!	!	!	!	!LO:MO:mod=-vi-	!LO:PB:g=original	!
2D/	-do-	4A/	-a-	4A\	-ui-	2g\	-ta-
!	!	!	!LO:MO:mod=-vi-	!	!	!	!
.	.	4F/	-ui-	2d\	-ta-	.	.
=60-	=60-	=60-	=60-	=60-	=60-	=60-	=60-
!	!	!	!	!	!	!LO:SIC:v:s=2d	!
4BB-/	-ris	2B-\	-ta-	.	.	2e\	-te(m)
*	*	*	*	*custos:G	*	*	*
4GG/	o-	.	.	4B-\	-tem	.	.
!	!	!	!	!LO:LB:g=original	!	!	!
2C/	-do-	4G/	-tem	(4G/	O-	2r	.
.	.	4A/	o-	4c/)	.	.	.
*	*	*custos:B-	*	*	*	*	*
!	!	!	!	!	!	!LO:SIC:v:s=2f#	!
0D	.	2F#X/	-do-	2c\	-do-	2f\	Su-
!	!	!LO:LB:g=original	!	!	!	!	!
.	.	4B-\	-ris	2G/	.	2g\	-a-
*	*	*	*Xij	*	*	*	*
.	.	4B-\	o-	.	.	.	.
=61-	=61-	=61-	=61-	=61-	=61-	=61-	=61-
.	.	1A	-do-	1A	.	2g\	-vi-
!	!	!	!	!	!	!LO:SIC:v:s=2f#	!
.	.	.	.	.	.	2f\	-ta-
!	!	!	!	!LO:N:acc=#	!	!	!
1GG;	-ris	1G;	-ris	1BnX;<	-ris	1g	-te(m)
=62-	=62-	=62-	=62-	=62-	=62-	=62-	=62-
*	*	*	*	*	*	*	*ij
4r	.	4r	.	4r	.	2d\	Su-
!LO:TX:b:t=P:problem=# below	!	!	!	!	!	!	!
!LO:N:acc=#	!	!	!	!	!	!	!
4BBn/	ſu-	4G/	ſu-	4d\	ſu-	.	.
!	!	!	!	!	!	!LO:TX:t=P:problem=kreska pseudotaktowa	!
4BB/	-a-	4G/	-a-	4d\	-a-	4g\	-a-
!	!LO:MO:mod=-vi-	!	!LO:MO:mod=-vi-	!	!LO:MO:mod=-vi-	!	!
4BB/	-ui-	4d\	-ui-	4d\	-ui-	4g\	-vi-
!	!	!	!	!LO:N:acc=#	!	!	!
2C/	-ta-	2c\	-ta-	2enX\	-ta-	2g\	-ta-
4FF#X/	-tem	4c\	-tem	4A/	-tem	4a\	-te(m)
*	*	*	*	*	*	*	*Xij
4FF#/	o-	4c\	O-	4A/	.	4a\	o-
=63-	=63-	=63-	=63-	=63-	=63-	=63-	=63-
2GG/	-do-	2.B-\	-do-	2d\	O-	1.g	-do-
4E-X\	.	.	.	4e-X\	-do-	.	.
4E-\	.	8A\L	.	4e-\	-ris	.	.
.	.	8G\J	.	.	.	.	.
1D	.	1A	.	2A/	o-	.	.
.	.	.	.	2d\	-do-	2f#X\	.
=64-	=64-	=64-	=64-	=64-	=64-	=64-	=64-
!	!	!LO:N:acc=#	!	!	!	!	!
0GG;	-ris	0Bn;;	-ris	0d;;	-ris	0g;;	-ris
!LO:LB:g=original	!	!LO:LB:g=original	!	!LO:LB:g=original	!	!LO:LB:g=original	!
=-	=-	=-	=-	=-	=-	=-	=-
*-	*-	*-	*-	*-	*-	*-	*-
!!!system-decoration: [(s1,s2,s3,s4)]
!!!RDF**kern: < = below
!!!ENC: Marta Chmielewska
!!!END: 2021-04-06
!!!ENC: Katarzyna Serwa
!!!END: 2021-03-26
